X: 51
T: Fang yang
L: 1/8
M: 2/4
K: D
B2B d [I:setbarnb 1]| 
B2A F | 
d> e d B | 
B AF2 | 
A> A F A | 
B2d2 | 
F> E D E/ F/ | 
E2z2 | 
F2F2 | 
B2d B | 
B FB2 | 
D3B, | 
BB2d | 
B2D E | 
F> A E C | 
B,4 |]

@@@ Tune index: 8925
